X:1
T:大提琴练习曲_Book1_P3_No.8
T:大提琴练习曲_Book1_P4_No.8
%%score 1 2
L:1/8
Q:1/4=80
M:3/4
K:C
V:1 bass nm="Piano" snm="Pno."
V:2 bass nm="大提琴" snm="Vc."
V:1
 C,,2 C,,2 C,,2 | (3C,, G,, G,, (3E,, G,, G,, (3D,, G,, G,, | (3C,, C, C, (3A,, C, C, (3G,, C, C, | %3
 (3D,, G,, G,, (3F,, G,, G,, (3E,, G,, G,, | (3D,, B,, B,, (3A,, B,, B,, (3G,, B,, B,, | %5
 (3F,, B,, B,, (3E,, C, C, (3G,, E, E, | (3A,, F, F, (3G,, E, E, (3E,, C, C, | %7
 (3G,, E, E, (3G,, D, D, (3G,, C, C, | (3G,, B,, B,, (3G,, A,, A,, (3F,, B,, B,, | %9
 (3_E,, C, C, (3D,, B,, B,, (3E,, C, C, | (3G,, D, D, (3G,, B,, B,, (3_E,, C, C, | %11
 (3_B,, G, G, (3A,, F, F, (3A,, C, C, | (3G,, D, D, (3A,, C, C, (3B,, D, D, | %13
 (3C, E, E, (3C, F, F, (3_B,, G, G, | (3A,, C, C, (3A,, F, F, (3G,, E, E, | %15
 (3G,, A,, A,, (3F,, B,, B,, (3E,, C, C, | (3D,, C, C, (3D,, B,, B,, (3D,, G,, G,, | %17
 (3C,, G,, G,, (3E,, G,, G,, (3D,, G,, G,, | (3C,, C, C, (3A,, C, C, (3G,, C, C, | %19
 (3D,, G,, G,, (3F,, G,, G,, (3E,, G,, G,, | (3D,, B,, B,, (3A,, B,, B,, (3G,, B,, B,, | %21
 (3F,, B,, B,, (3E,, C, C, (3G,, E, E, | (3A,, C, C, (3A,, D, D, (3A,, F, F, | %23
 (3G,, F, F, (3G,, E, E, (3G,, C, C, | (3G,, E, E, (3G,, D, D, (3G,, B,, B,, | %25
 (3C,, C, C, (3E,, C, C, (3A,, C, C, | (3G,, B,, B,, (3F,, A,, A,, (3D,, B,, B,, | %27
 (3C,, C, C, (3E,, C, C, (3A,, C, C, | (3G,, B,, B,, (3F,, A,, A,, (3D,, B,, B,, | %29
 (3C,, C, C, (3E,, C, C, (3D,, B,, B,, | (3C,, C, C, (3E,, C, C, (3D,, B,, B,, | %31
 (3C,, C, C, (3E,, C, C, (3G,, E, E, | (3C, E, E, (3G,, C, C, (3E,, G,, G,, | C,,6 |] %34
V:2
 z6 | (3C,,G,,G,, (3E,,G,,G,, (3D,,G,,G,, | (3C,,C,C, (3A,,C,C, (3G,,C,C, | %3
 (3D,,G,,G,, (3F,,G,,G,, (3E,,G,,G,, | (3D,,B,,B,, (3A,,B,,B,, (3G,,B,,B,, | %5
 (3F,,B,,B,, (3E,,C,C, (3G,,E,E, | (3A,,F,F, (3G,,E,E, (3E,,C,C, | (3G,,E,E, (3G,,D,D, (3G,,C,C, | %8
 (3G,,B,,B,, (3G,,A,,A,, (3F,,B,,B,, | (3_E,,C,C, (3D,,B,,B,, (3E,,C,C, | %10
 (3G,,D,D, (3G,,B,,B,, (3_E,,C,C, | (3_B,,G,G, (3A,,F,F, (3A,,C,C, | %12
 (3G,,D,D, (3A,,C,C, (3B,,D,D, | (3C,E,E, (3C,F,F, (3_B,,G,G, | (3A,,C,C, (3A,,F,F, (3G,,E,E, | %15
 (3G,,A,,A,, (3F,,B,,B,, (3E,,C,C, | (3D,,C,C, (3D,,B,,B,, (3D,,G,,G,, | %17
 (3C,,G,,G,, (3E,,G,,G,, (3D,,G,,G,, | (3C,,C,C, (3A,,C,C, (3G,,C,C, | %19
 (3D,,G,,G,, (3F,,G,,G,, (3E,,G,,G,, | (3D,,B,,B,, (3A,,B,,B,, (3G,,B,,B,, | %21
 (3F,,B,,B,, (3E,,C,C, (3G,,E,E, | (3A,,C,C, (3A,,D,D, (3A,,F,F, | (3G,,F,F, (3G,,E,E, (3G,,C,C, | %24
 (3G,,E,E, (3G,,D,D, (3G,,B,,B,, | (3C,,C,C, (3E,,C,C, (3A,,C,C, | %26
 (3G,,B,,B,, (3F,,A,,A,, (3D,,B,,B,, | (3C,,C,C, (3E,,C,C, (3A,,C,C, | %28
 (3G,,B,,B,, (3F,,A,,A,, (3D,,B,,B,, | (3C,,C,C, (3E,,C,C, (3D,,B,,B,, | %30
 (3C,,C,C, (3E,,C,C, (3D,,B,,B,, | (3C,,C,C, (3E,,C,C, (3G,,E,E, | (3C,E,E, (3G,,C,C, (3E,,G,,G,, | %33
 C,,6 |] %34

